X: 4196
T: BELFAST HAM
R: Jig
%R: jig
B: James Kerr "Merry Melodies" v.4 p.22 #196
Z: 2016 John Chambers <jc:trillian.mit.edu>
M: 6/8
L: 1/8
K: D
|:\
AFA d2c | B2B e2f | gfe dcB | ABG F2G |\
AFA d2c | B2B efg | fed Adc | d3- d2A :|
|:\
d2f afd | cec ABc | d2f afd | g3  f2g |\
agf gfe | fed efg | fed Adc | d3- d2A :|

%%sep 1 1 500
%%sep 1 1 500

